X: 70
T:Drunk at Night,(Continued). BF11.69
M:3/4
L:1/8
Q:120
C:Browne A hand
S:MS11,c1800.,Browne Coll.,Lakes
R:Air
O:England
A:Lakes
N:This is part of the previous item and has been put separately because
N:it won't all fit on one page..the same notes apply..CGP
Z:vmp.Chris Partington
K:A
|:"Continued......"A2e2A2|A2e2A2|A2c2c2|c3BA|\
cBABc2|DCB,CDB,|!
G,2G2Bd|c3BA|e2A2D2|G/F/E/D/ E/D/C/B,/ C/B,/A,/G,/|\
G,2G2GB|G4:||!
""D>D ""A>A ""D>D|""D>D ""A>A ""D>D|G,2c2cd|c3BA2|!
 ""(3G,G,/G,/ ""(3AA/A/ ""(3DD/D/|\
""(3G,G,/G,/ ""(3AA/A/ ""(3DD/D/|G,2c2cd|c3BA2|!
cBABc2|DCB,CDB,|G,2G2Bd|c3BA2|!
 ""e2""A2""D2|G/F/E/D/ E/D/C/B,/ C/B,/A,/G,/|G,2G2GB|G4:|!
|:""G,>e ""A>e ""D>e|""G,>e ""A>e ""D>e|G,2c2cd|c3BA2|!
""(G,e/e/) ""(Ae/e/) ""(De/e/)|""(G,e/e/) ""(Ae/e/) ""(De/e/)|\
G,2c2cd|c3BA|!
cBABc2|DCA,G,DB,|G,2G2Bd|c3BA|!
""e2""A2""D2|G/F/E/D/ E/D/C/B,/ C/B,/A,/G,/|G,2G2GB|G4:|
|:B,/C/B,/G,/|C2E/C/B,/C/ E/C/B/C/|G,2D/C/B,/C/ D/G,/G/C/|G,2G2GB|G4||!
G,/A,/B,/A,/|C2E/C/B,/C/ E/C/B,/C/|B,2D/C/B,/C/ D/A,/G/B,/|G,2G2GB|G4||!
G,/A,/B,/A,/|C2E/C/B,/C/ E/C/G/C/|B2D/C/B,/C/ D/C/G/C/|G,2G2Gd|c3BA2|!
e2A2D2|G/F/E/D/ E/D/C/B,/ C/B,/A,/G,/|G,2G2GB|G4|]
